svg/list_status.svg

<svg xmlns="http://www.w3.org/2000/svg" viewBox="0 0 24 24"><path d="M16.5 11 13 7.5l1.4-1.4 2.1 2.1L20.7 4l1.4 1.4zM11 7H2v2h9zm10 6.4L19.6 12 17 14.6 14.4 12 13 13.4l2.6 2.6-2.6 2.6 1.4 1.4 2.6-2.6 2.6 2.6 1.4-1.4-2.6-2.6zM11 15H2v2h9z"/></svg>

<?xml version="1.0" encoding="UTF-8"?><!DOCTYPE svg PUBLIC "-//W3C//DTD SVG 1.1//EN" "http://www.w3.org/Graphics/SVG/1.1/DTD/svg11.dtd"><svg xmlns="http://www.w3.org/2000/svg" xmlns:xlink="http://www.w3.org/1999/xlink" version="1.1" id="mdi-list-status" width="24" height="24" viewBox="0 0 24 24"><path d="M16.5 11L13 7.5L14.4 6.1L16.5 8.2L20.7 4L22.1 5.4L16.5 11M11 7H2V9H11V7M21 13.4L19.6 12L17 14.6L14.4 12L13 13.4L15.6 16L13 18.6L14.4 20L17 17.4L19.6 20L21 18.6L18.4 16L21 13.4M11 15H2V17H11V15Z" /></svg>
